assets/efishery/es-balok-fill.svg

<svg width="24" height="25" viewBox="0 0 24 25" fill="none" xmlns="http://www.w3.org/2000/svg">
<path fill-rule="evenodd" clip-rule="evenodd" d="M9.37769 4.31859C9.19319 4.2515 8.98975 4.25943 8.81103 4.34066L3.31103 6.84066C3.04328 6.96237 2.87138 7.22933 2.87138 7.52344V8.07491C2.86383 8.08678 2.8561 8.09874 2.84818 8.1108C2.63858 8.42991 2.31 8.79677 1.84403 9.10741C1.3674 9.42517 1.08798 9.85465 1.01754 10.3243C0.948488 10.7846 1.08851 11.2296 1.34638 11.5734C1.68756 12.0283 2.24915 12.3244 2.87138 12.2943V12.6399C2.64397 12.7354 2.4046 12.9118 2.14651 13.1699C1.69701 13.6194 1.47603 14.1508 1.64945 14.6855C1.80852 15.176 2.24859 15.4916 2.68275 15.6725C3.49878 16.0125 4.69879 16.0476 5.60133 15.5467L6.98572 16.3542C6.82448 16.5641 6.68694 16.8229 6.59035 17.0915C6.46278 17.4462 6.38642 17.8742 6.46197 18.2877C6.54139 18.7223 6.79025 19.1313 7.27271 19.3706C7.72897 19.597 8.33368 19.6414 9.08226 19.5166C9.78948 19.3988 10.2004 19.4394 10.4544 19.5222C10.6927 19.5999 10.8392 19.729 10.9954 19.9113C11.0255 19.9465 11.06 19.9895 11.0985 20.0375C11.2353 20.2081 11.4231 20.4424 11.649 20.6156C11.9819 20.8708 12.4052 21.0234 13.0001 21.0234C13.8148 21.0234 14.4807 20.5127 14.7781 19.8543C14.8615 19.6697 14.9167 19.4722 14.9395 19.2693L17.0312 20.4895C17.284 20.6369 17.5995 20.6239 17.8392 20.456L21.9302 17.5924C22.1307 17.4521 22.2501 17.2227 22.2501 16.978V11.6598C22.2501 11.3444 22.0528 11.0627 21.7564 10.955L17.2564 9.31859C17.0719 9.2515 16.8684 9.25943 16.6897 9.34066L15.3714 9.9399V7.02344C15.3714 6.70806 15.1741 6.42637 14.8777 6.31859L9.37769 4.31859ZM8.6537 17.3272L9.24348 17.6713C9.49626 17.8187 9.81173 17.8057 10.0515 17.6379L11.7501 16.4489V16.978C11.7501 17.2447 11.8917 17.4914 12.1222 17.6258L13.8373 18.6263C13.9912 18.9034 13.9786 19.1952 13.8668 19.4426C13.7125 19.7842 13.3784 20.0234 13.0001 20.0234C12.5949 20.0234 12.3932 19.926 12.2574 19.8219C12.1351 19.7282 12.0565 19.6304 11.9433 19.4894C11.8906 19.4238 11.8303 19.3488 11.7547 19.2605C11.536 19.0054 11.2449 18.7282 10.7644 18.5715C10.2998 18.42 9.71064 18.3981 8.91786 18.5302C8.27147 18.638 7.90786 18.5694 7.71715 18.4748C7.55263 18.3932 7.47586 18.2731 7.44569 18.1079C7.41165 17.9217 7.44174 17.6791 7.53135 17.4299C7.57803 17.3001 7.6354 17.1837 7.69421 17.0874L8.6537 17.3272ZM2.85361 13.877C2.87922 13.8514 2.90356 13.8278 2.92667 13.8061C2.98812 13.9571 3.09815 14.0865 3.24348 14.1713L4.47309 14.8885C3.99312 14.9704 3.46712 14.916 3.06737 14.7494C2.75154 14.6178 2.62911 14.4647 2.60067 14.377C2.5866 14.3336 2.55311 14.1775 2.85361 13.877ZM2.87138 9.58013V11.2907C2.55938 11.3248 2.29984 11.1781 2.14638 10.9734C2.02926 10.8173 1.98178 10.6373 2.00648 10.4726C2.02978 10.3172 2.12536 10.1217 2.39873 9.93946C2.57023 9.82513 2.7276 9.70436 2.87138 9.58013ZM17.8334 18.0056V18.6292L20.7501 16.5875V12.1851L17.0316 10.833L13.4108 12.4788L14.3029 12.9249C14.4986 12.5807 14.9317 12.4462 15.29 12.6253L17.3763 13.6685L19.0687 12.653C19.4239 12.4399 19.8846 12.5551 20.0977 12.9103C20.3108 13.2655 20.1957 13.7262 19.8405 13.9393L18.1592 14.9481V17.3871C18.1592 17.6438 18.0301 17.8704 17.8334 18.0056ZM11.6913 14.659C11.7105 14.6456 11.7301 14.6332 11.7501 14.6218V12.0689C11.7501 11.7748 11.922 11.5078 12.1897 11.3861L13.8714 10.6217V7.54876L9.15291 5.83295L4.42091 7.98386L5.92803 8.73742C5.93489 8.72082 5.9424 8.70435 5.95056 8.68803C6.1358 8.31754 6.58631 8.16737 6.95679 8.35262L9.58855 9.66849L11.7355 8.38032C12.0907 8.16721 12.5514 8.28238 12.7645 8.63757C12.9776 8.99275 12.8624 9.45345 12.5073 9.66656L10.3714 10.9481V14.0234C10.3714 14.4377 10.0356 14.7734 9.62138 14.7734C9.58008 14.7734 9.53955 14.7701 9.50006 14.7637V16.0844L9.58459 16.1337L11.6913 14.659ZM5.37138 10.5234C5.37138 10.3854 5.25945 10.2734 5.12138 10.2734C4.98331 10.2734 4.87138 10.3854 4.87138 10.5234V12.0234C4.87138 12.1181 4.92488 12.2047 5.00958 12.247L6.00958 12.747C6.13307 12.8088 6.28324 12.7587 6.34499 12.6352C6.40674 12.5117 6.35668 12.3616 6.23319 12.2998L5.37138 11.8689V10.5234ZM14.1635 14.6901C14.1635 14.5674 14.064 14.4679 13.9412 14.4679C13.8185 14.4679 13.719 14.5674 13.719 14.6901V16.0234C13.719 16.1076 13.7666 16.1846 13.8419 16.2222L14.7307 16.6666C14.8405 16.7215 14.974 16.677 15.0289 16.5673C15.0838 16.4575 15.0393 16.324 14.9295 16.2691L14.1635 15.8861V14.6901Z" fill="#1D1D1D"/>
</svg>

<svg viewBox="0 0 24 25" xmlns="http://www.w3.org/2000/svg">
  <path fill-rule="evenodd" clip-rule="evenodd" d="M9.378 4.319a.75.75 0 0 0-.567.022l-5.5 2.5a.75.75 0 0 0-.44.682v.552a3.58 3.58 0 0 1-1.027 1.033c-.477.317-.756.747-.826 1.216-.07.46.07.906.328 1.25.342.454.903.75 1.525.72v.346c-.227.095-.466.272-.724.53-.45.45-.671.98-.498 1.515.16.491.6.807 1.034.987.816.34 2.016.376 2.918-.125l1.385.807c-.162.21-.3.469-.396.738-.127.354-.204.782-.128 1.196.08.434.328.843.81 1.083.457.226 1.062.27 1.81.146.707-.118 1.118-.078 1.372.005.239.078.385.207.541.39l.104.126c.136.17.324.404.55.578.333.255.756.407 1.351.407.815 0 1.48-.51 1.778-1.169.083-.184.139-.382.162-.585l2.091 1.22a.75.75 0 0 0 .808-.033l4.091-2.864c.2-.14.32-.37.32-.614V11.66a.75.75 0 0 0-.494-.705l-4.5-1.636a.75.75 0 0 0-.566.022l-1.319.599V7.023a.75.75 0 0 0-.493-.704l-5.5-2zm-.724 13.008.59.344a.75.75 0 0 0 .808-.033l1.698-1.19v.53a.75.75 0 0 0 .372.648l1.715 1a.89.89 0 0 1 .03.817.965.965 0 0 1-.867.58c-.405 0-.607-.097-.743-.201a1.787 1.787 0 0 1-.314-.333 8.994 8.994 0 0 0-.188-.229c-.219-.255-.51-.532-.99-.689-.465-.151-1.054-.173-1.847-.04-.647.107-1.01.038-1.2-.056a.47.47 0 0 1-.272-.367c-.034-.186-.004-.429.085-.678.047-.13.104-.246.163-.343l.96.24zm-5.8-3.45c.025-.026.05-.05.073-.07a.75.75 0 0 0 .316.364l1.23.718c-.48.081-1.006.027-1.406-.14-.315-.131-.438-.284-.466-.372-.014-.043-.048-.2.253-.5zM2.87 9.58v1.71a.791.791 0 0 1-.725-.317.674.674 0 0 1-.14-.5c.024-.156.12-.351.393-.534.171-.114.329-.235.472-.359zm14.962 8.426v.623l2.917-2.042v-4.402l-3.718-1.352-3.621 1.646.892.446a.75.75 0 0 1 .987-.3l2.086 1.043 1.693-1.015a.75.75 0 0 1 .771 1.286l-1.68 1.01v2.438a.75.75 0 0 1-.327.619zm-6.142-3.347a.762.762 0 0 1 .06-.037v-2.553a.75.75 0 0 1 .439-.683l1.681-.764V7.549L9.153 5.833 4.42 7.983l1.507.754a.75.75 0 0 1 1.029-.385l2.632 1.316 2.146-1.288a.75.75 0 0 1 .772 1.287l-2.136 1.281v3.075a.75.75 0 0 1-.87.74v1.321l.084.05 2.106-1.475zm-6.32-4.136a.25.25 0 0 0-.5 0v1.5a.25.25 0 0 0 .139.224l1 .5a.25.25 0 1 0 .223-.447l-.862-.431v-1.346zm8.793 4.167a.222.222 0 0 0-.445 0v1.333c0 .085.048.162.123.2l.889.444a.222.222 0 0 0 .199-.398l-.766-.383V14.69z"/>
</svg>
